packages/ui/public/icons/coinbase-icon.svg

<svg width="34" height="34" viewBox="0 0 34 34" fill="none" xmlns="http://www.w3.org/2000/svg">
<path d="M34 14.7152C34 2.59723 31.4028 0 19.2848 0H14.7152C2.59723 0 0 2.59723 0 14.7152V19.2848C0 31.4028 2.59723 34 14.7152 34H19.2848C31.4028 34 34 31.4028 34 19.2848V14.7152Z" fill="#0052FF"/>
<path d="M17 3C24.1805 3 30 8.81953 30 16C30 23.1805 24.1805 29 17 29C9.81953 29 4 23.1805 4 16C4 8.81953 9.81953 3 17 3Z" fill="#0052FF"/>
<path d="M17.0025 20.5703C14.4787 20.5703 12.4322 18.5264 12.4322 16C12.4322 13.4736 14.4787 11.4297 17.0025 11.4297C19.2648 11.4297 21.1438 13.0801 21.5043 15.2383H26.1076C25.7191 10.5461 21.7912 6.85938 17 6.85938C11.9523 6.85938 7.85938 10.9523 7.85938 16C7.85938 21.0477 11.9523 25.1406 17 25.1406C21.7912 25.1406 25.7191 21.4539 26.1076 16.7617H21.5018C21.1387 18.9199 19.2648 20.5703 17.0025 20.5703Z" fill="white"/>
</svg>

<svg width="34" height="34" fill="none" xmlns="http://www.w3.org/2000/svg"><path d="M34 14.715C34 2.597 31.403 0 19.285 0h-4.57C2.597 0 0 2.597 0 14.715v4.57C0 31.403 2.597 34 14.715 34h4.57C31.403 34 34 31.403 34 19.285v-4.57Z" fill="#0052FF"/><path d="M17 3c7.18 0 13 5.82 13 13s-5.82 13-13 13S4 23.18 4 16 9.82 3 17 3Z" fill="#0052FF"/><path d="M17.003 20.57a4.569 4.569 0 0 1-4.57-4.57 4.569 4.569 0 0 1 9.071-.762h4.604A9.141 9.141 0 1 0 17 25.14c4.791 0 8.72-3.686 9.108-8.378h-4.606a4.569 4.569 0 0 1-4.5 3.808Z" fill="#fff"/></svg>
